X: 9032
T: Da Caald Nights O' Winter
R: reel
M: 4/4
K: Amixolydian
|:eaaf gefd|(3BBB ge (3ddd fe|
eaaf gagd|efdf (3eee e2:|
|:AAcA eAcA|(3BBB ge d2 df|
eAcA eAce|efdf (3eee e2:|

